www/assets/icons/format_color_reset.svg

<svg width="24" height="24" viewBox="0 0 24 24" xmlns="http://www.w3.org/2000/svg" fill='currentColor'><path d="M18.07 13.8349C18.07 9.83491 12.07 3.03491 12.07 3.03491C12.07 3.03491 10.74 4.54491 9.34001 6.55491L17.93 15.1449C18.02 14.7249 18.07 14.2849 18.07 13.8349ZM5.34001 5.10491L4.07001 6.38491L7.39001 9.70491C6.62001 11.1549 6.07001 12.6249 6.07001 13.8349C6.07001 17.1449 8.76001 19.8349 12.07 19.8349C13.59 19.8349 14.97 19.2649 16.03 18.3349L18.66 20.9649L19.93 19.6949L5.34001 5.10491Z"/></svg>

<svg xmlns="http://www.w3.org/2000/svg" width="24" height="24" viewBox="0 0 24 24" fill='currentColor'><path d="M18.07 13.835c0-4-6-10.8-6-10.8s-1.33 1.51-2.73 3.52l8.59 8.59c.09-.42.14-.86.14-1.31M5.34 5.105l-1.27 1.28 3.32 3.32c-.77 1.45-1.32 2.92-1.32 4.13 0 3.31 2.69 6 6 6 1.52 0 2.9-.57 3.96-1.5l2.63 2.63 1.27-1.27z"/></svg>
